build/Karasa-Jaga/scalable/actions/document-open-symbolic.svg

<svg height="16" width="16" xmlns="http://www.w3.org/2000/svg"><path d="m1.7714844 2.1679688c-.2281974 0-.3164586.2107767-.4121094.4277343l-.2402344.5429688.0996094 4.703125c.00895-.0004971.0193388.0030568.0273438-.0019531h.71875l.0039062-.4160157v-3.21875h.3261719v-2.0371093zm11.9335936 1.1621093v.875h.326172v2.4882813h.808594l.039062-2.9355469c.0099-.2368992-.181954-.4277344-.410156-.4277344z" fill="#ccc"/><path d="m1.0037089 8.8905728h3.1960643l1.4486719-1.1733648h9.3481199c.23712 0 .446448.1916138.428016.4280169l-.518141 6.6455101c-.01843.236402-.190895.428015-.428015.428015h-12.9565756c-.23712 0-.4056633-.191952-.4280156-.428015l-.5181447-5.472145c-.02235245-.2360654.22700791-.3022301.4280198-.4280172z" fill="#ccc"/><g fill="#bebebe"><path d="m3.3711206.78125v6.5273438h.4863281l.013672-5.9765626 5.6796874-.025391 2.4765629 2.1523438.05078 3.7773437a.8583401.8583401 0 0 1 .144531.072266h.40625v-3.9492187l-2.7265614-2.578125z" fill-opacity=".902043"/><path d="m9.9215043 1.1643563.096908 2.3029742 2.237792.031725v-.3512375l-2.0454453-1.9834614z"/></g></svg>

<?xml version="1.0" encoding="UTF-8" standalone="no"?>
<!-- Created with Inkscape (http://www.inkscape.org/) -->

<svg
   xmlns:dc="http://purl.org/dc/elements/1.1/"
   xmlns:cc="http://creativecommons.org/ns#"
   xmlns:rdf="http://www.w3.org/1999/02/22-rdf-syntax-ns#"
   xmlns:svg="http://www.w3.org/2000/svg"
   xmlns="http://www.w3.org/2000/svg"
   xmlns:xlink="http://www.w3.org/1999/xlink"
   xmlns:sodipodi="http://sodipodi.sourceforge.net/DTD/sodipodi-0.dtd"
   xmlns:inkscape="http://www.inkscape.org/namespaces/inkscape"
   id="svg7384"
   height="16"
   width="16"
   version="1.1"
   inkscape:version="0.92.2 (unknown)"
   sodipodi:docname="document-open-symbolic.svg">
  <defs
     id="defs8853">
    <linearGradient
       id="linearGradient4565">
      <stop
         id="stop4567"
         offset="0"
         style="stop-color:#161616;stop-opacity:1;" />
      <stop
         id="stop4569"
         offset="1"
         style="stop-color:#3a3a3a;stop-opacity:1;" />
    </linearGradient>
    <linearGradient
       inkscape:collect="always"
       xlink:href="#linearGradient4565"
       id="linearGradient4548"
       gradientUnits="userSpaceOnUse"
       x1="136.23065"
       y1="40.918156"
       x2="54.675591"
       y2="-40.636906" />
  </defs>
  <sodipodi:namedview
     pagecolor="#ffffff"
     bordercolor="#666666"
     borderopacity="1"
     objecttolerance="10"
     gridtolerance="10"
     guidetolerance="10"
     inkscape:pageopacity="0"
     inkscape:pageshadow="2"
     inkscape:window-width="1366"
     inkscape:window-height="716"
     id="namedview8851"
     showgrid="false"
     inkscape:zoom="20.85965"
     inkscape:cx="7.7646846"
     inkscape:cy="6.4220961"
     inkscape:window-x="0"
     inkscape:window-y="27"
     inkscape:window-maximized="1"
     inkscape:current-layer="svg7384" />
  <metadata
     id="metadata90">
    <rdf:RDF>
      <cc:Work
         rdf:about="">
        <dc:format>image/svg+xml</dc:format>
        <dc:type
           rdf:resource="http://purl.org/dc/dcmitype/StillImage" />
        <dc:title>Gnome Symbolic Icon Theme</dc:title>
      </cc:Work>
    </rdf:RDF>
  </metadata>
  <title
     id="title9167">Gnome Symbolic Icon Theme</title>
  <path
     style="fill:#cccccc;fill-opacity:1;stroke:none"
     mask="none"
     clip-path="none"
     d="M 1.7714844 2.1679688 C 1.543287 2.1679688 1.4550258 2.3787455 1.359375 2.5957031 L 1.1191406 3.1386719 L 1.21875 7.8417969 C 1.2277 7.8412998 1.2380888 7.8448537 1.2460938 7.8398438 L 1.9648438 7.8398438 L 1.96875 7.4238281 L 1.96875 4.2050781 L 2.2949219 4.2050781 L 2.2949219 2.1679688 L 1.7714844 2.1679688 z M 13.705078 3.3300781 L 13.705078 4.2050781 L 14.03125 4.2050781 L 14.03125 6.6933594 L 14.839844 6.6933594 L 14.878906 3.7578125 C 14.888806 3.5209133 14.696952 3.3300781 14.46875 3.3300781 L 13.705078 3.3300781 z "
     id="path4924" />
  <path
     sodipodi:nodetypes="sccssssssss"
     inkscape:connector-curvature="0"
     id="path4932"
     d="M 1.0037089,8.8905728 H 4.1997732 L 5.6484451,7.717208 h 9.3481199 c 0.23712,0 0.446448,0.1916138 0.428016,0.4280169 L 14.90644,14.790735 c -0.01843,0.236402 -0.190895,0.428015 -0.428015,0.428015 H 1.5218494 c -0.23712,0 -0.4056633,-0.191952 -0.4280156,-0.428015 L 0.5756891,9.31859 C 0.55333665,9.0825246 0.80269701,9.0163599 1.0037089,8.8905728 Z"
     style="fill:#cccccc;fill-opacity:1;stroke:none" />
  <path
     style="fill:#bebebe;fill-opacity:0.9020427;stroke:none;stroke-width:0.8006413"
     d="m 3.3711206,0.78125 v 6.5273438 h 0.4863281 l 0.013672,-5.9765626 5.6796874,-0.025391 2.4765629,2.1523438 0.05078,3.7773437 a 0.8583401,0.8583401 0 0 1 0.144531,0.072266 h 0.40625 V 3.359375 L 9.9023706,0.78125 Z"
     id="rect7217"
     inkscape:connector-curvature="0" />
  <path
     style="fill:#bebebe;fill-opacity:1;stroke:none;stroke-width:0.8006413"
     d="m 9.9215043,1.1643563 0.096908,2.3029742 2.237792,0.031725 V 3.147818 L 10.210759,1.1643566 Z"
     id="path7212"
     inkscape:connector-curvature="0"
     sodipodi:nodetypes="cccccc" />
</svg>
